X:1
T:Title
%%score { ( 1 3 5 ) | ( 2 4 6 ) }
L:1/8
M:4/4
K:F
V:1 treble nm="Grand Piano"
V:3 treble 
V:5 treble 
V:2 bass 
V:4 bass 
V:6 bass 
V:1
 z4 z2[Q:1/4=96] A2 | A3 A cBDF | A2- [^CGA-]2 [DFA]2 [DGB]2 | A3 G [CEc]2 [CEB]2 | %4
 F2- [F-f]2 [Fe]2 _e2 | [FBd]3 [FBd] [Fc]F[EB][FB] | A2- [G,^CEA]2[K:bass] [^F,D]2 z2 | %7
 .G2 z2 A2 z2 | c6 z2 | c4 z2 .A2 | F6 z2 | [B,DB]4 [B,DF]2 G2 | A2- [^CEA-]2 [=CDA]2 [A,^FA]2 | %13
 [B,DG]3 [D^FA] [DGB]2 .[DGd]2 | [FAc][FA] [G,B,F]4 z2 | z2 G4 z2 | F6 z2 | A A2 A A>A A>A | %18
 c6 z2 | z4 G2 z2 |[M:3/4] [CE]2 g2 e2 |[M:1/4] G2 |[M:4/4] z2 c4 z2 | [DFB]2 [Bd]4 [Bd]2 | %24
 .[Ac]2 z2 A4 |[M:3/4] F6 |] %26
V:2
 z8 | [F,,F,]4 z2 z ^C | [F,,F,]2 E,2 D,2 G,,2 | z2 C2 [C,,C,]4 | z2[K:treble] A2 A2 A2 | %5
 [B,,B,]4 [A,,A,]2 z D | A,,2 G,,2 ^F,,2 .A2 | z2 z G z2 G2 | z2[K:treble] B2 G2 E2 | %9
 [C,G,B,]6 [^C,A,]2 | [D,A,D]2 [_E,A,]2 D,2 C,2 | z2 z[K:treble] B[K:bass] z2 D2 | %12
 A,,2 G,2 ^F,2 D,2 | B,,3 A,, G,,2 z E | z C ^C,4[K:treble] F2 | (3ABC[K:bass] z2 z2 A2 | %16
 z2 [^C,G,]2 [=C,A,]2 z2 | [F,CF]4 [C_EF]2 [DF]2 | [G,CE]2 [F,D]2 [E,C]2 [B,E]2 | [D,A,D]4 z2 A2 | %20
[M:3/4] z2[K:treble] B2 G2 |[M:1/4] [CE]2 |[M:4/4] [CF]2 [CA]4[K:bass] C2 | %23
 z z/[K:treble] B/ z2[K:bass] z2 F2 | z F2 B,, [C,C]2 z G |[M:3/4] z2 ^C,2 =C,2 |] %26
V:3
 x8 | [CF]2 _E2 D2 z2 | C2 z2 z4 | [CF]2 E2 z4 | [CA]2 z2 z4 | x8 | [A,^CE]2 z2[K:bass] z4 | %7
 [G,=B,]4 [G,B,F]4 | [CE]2 [eg]2 [Be]2 [Bd]2 | [EG]2 z B DEE-[EG] | z2 C2 B,2 [A,_EF]2 | x8 | %12
 [^CE]2 z2 z4 | x8 | x8 | z2 [B,E]6 | [F,A,C]2 =B,2 C2 z2 | x8 | z2 F2 G2 c2 | F3 F [G,=B,F]4 | %20
[M:3/4] G4 z2 |[M:1/4] x2 |[M:4/4] A>A z2 z2 [FA]2 | x8 | C- [CA]2 [DFB] F2 [B,E]2 | %25
[M:3/4] [F,A,]2 [_A,=B,]2 [=A,C]2 |] %26
V:4
 x8 | z4 [B,,F,]4 | x8 | C,4 z4 | [F,,F,]6[K:treble] z2 | z4 z2 [G,,G,]2 | x8 | G,,4 G,,4 | %8
 C,6[K:treble] z2 | x8 | x8 | B,,4[K:treble][K:bass] B,,4 | x8 | z4 z2 B,,2 | C,2 z2 z4[K:treble] | %15
 z2[K:bass] C,6 | F,,6 z2 | z4 F,4 | x8 | z4 G,,4 |[M:3/4] C,6[K:treble] |[M:1/4] x2 | %22
[M:4/4] F,4 z4[K:bass] | z2[K:treble] F4[K:bass] z2 | [F,,F,]4 z2 [C,,C,]2 |[M:3/4] F,,6 |] %26
V:5
 x8 | x8 | x8 | x8 | x8 | x8 | x4[K:bass] x4 | x8 | x8 | x8 | x8 | x8 | x8 | x8 | x8 | x8 | x8 | %17
 x8 | x8 | x8 |[M:3/4] x6 |[M:1/4] x2 |[M:4/4] z4 _E,4 | x8 | x8 |[M:3/4] x6 |] %26
V:6
 x8 | x8 | x8 | x8 | x2[K:treble] x6 | x8 | x8 | x8 | x2[K:treble] x6 | x8 | x8 | %11
 x3[K:treble] x[K:bass] x4 | x8 | x8 | x6[K:treble] x2 | x2[K:bass] x6 | x8 | x8 | x8 | x8 | %20
[M:3/4] x2[K:treble] x4 |[M:1/4] x2 |[M:4/4] x6[K:bass] x2 | D,4[K:treble][K:bass] B,,4 | x8 | %25
[M:3/4] x6 |] %26

